X: 88
%% Copyright 1935 by Chappell & Co, Inc. Copyright Renewed
T: I can't get started
M: 4/4
L: 1/8
C: Ira Gershwin & Vernon Duke
Q: 1/4=70
%%staves (chords melody)
K: C
%%text (ballad)
%%vskip 20
P: A
V: chords
x3 || "Cmaj7"x4 "Am7"x4 | "Dm7"x4 "G7"x4 | "E7"x4 "Eb7"x4 | "D7"x4 "G7"x4 |
"Cmaj7"x4 "Am7"x4 | "Dm7b5"x4 "G7"x4 | "Cmaj7"x4 "Am7"x4 | "Dm7"x4 "G7"x4 ||
V: melody
CEG || B2cA- AEF2 | G4- GEGB | d2ec- cGA2 | B4 zCEG |
